Papirus/64x64/apps/babe.svg

<svg xmlns="http://www.w3.org/2000/svg" width="64" height="64" version="1">
 <path style="opacity:0.2" d="m 20,11 c -2.700778,0.0033 -5.158777,1.559897 -6.316406,4 H 11 c -3.8658331,3.87e-4 -6.9996135,3.134167 -7,7 v 18 c 3.865e-4,3.865833 3.1341669,6.999613 7,7 h 3.257812 C 15.566175,48.878784 17.710537,49.999104 20,50 h 2.080078 C 22.577008,53.440744 25.52356,55.995586 29,56 h 6 c 3.477182,-0.0034 6.424838,-2.558524 6.921875,-6 H 44 c 2.286701,-0.0034 4.427592,-1.123479 5.734375,-3 H 53 c 3.865833,-3.87e-4 6.999613,-3.134167 7,-7 V 22 c -3.87e-4,-3.865833 -3.134167,-6.999613 -7,-7 H 50.314453 C 49.157127,12.560533 46.700072,11.004069 44,11 h -6 c -2.460278,0.0034 -4.738165,1.298107 -6,3.410156 C 30.738165,12.298107 28.460278,11.003448 26,11 Z"/>
 <path style="fill:#f85b79" d="m 20,10 c -2.700778,0.0033 -5.158777,1.559897 -6.316406,4 H 11 c -3.8658331,3.87e-4 -6.9996135,3.134167 -7,7 v 18 c 3.865e-4,3.865833 3.1341669,6.999613 7,7 h 3.257812 C 15.566175,47.878784 17.710537,48.999104 20,49 h 2.080078 C 22.577008,52.440744 25.52356,54.995586 29,55 h 6 c 3.477182,-0.0034 6.424838,-2.558524 6.921875,-6 H 44 c 2.286701,-0.0034 4.427592,-1.123479 5.734375,-3 H 53 c 3.865833,-3.87e-4 6.999613,-3.134167 7,-7 V 21 c -3.87e-4,-3.865833 -3.134167,-6.999613 -7,-7 H 50.314453 C 49.157127,11.560533 46.700072,10.004069 44,10 h -6 c -2.460278,0.0034 -4.738165,1.298107 -6,3.410156 C 30.738165,11.298107 28.460278,10.003448 26,10 Z"/>
 <path style="opacity:0.2" d="m 11,22 c 0,1.333348 0,2.666652 0,4 2.000001,0 4,0 6,0 0,-1.333348 0,-2.666652 0,-4 -2,0 -3.999999,0 -6,0 z"/>
 <path style="opacity:0.2" d="m 11,29 c 0,1.333348 0,2.666652 0,4 2.000001,0 4,0 6,0 0,-1.333348 0,-2.666652 0,-4 -2,0 -3.999999,0 -6,0 z"/>
 <path style="opacity:0.2" d="m 11,36 c 0,1.333348 0,2.666652 0,4 2.000001,0 4,0 6,0 0,-1.333348 0,-2.666652 0,-4 -2,0 -3.999999,0 -6,0 z"/>
 <path style="opacity:0.2" d="m 20,18 c 0,1.333348 0,2.666652 0,4 2.000002,0 4,0 6,0 0,-1.333348 0,-2.666652 0,-4 -2,0 -3.999998,0 -6,0 z"/>
 <path style="opacity:0.2" d="m 20,25 c 0,1.333348 0,2.666652 0,4 2.000002,0 4,0 6,0 0,-1.333348 0,-2.666652 0,-4 -2,0 -3.999998,0 -6,0 z"/>
 <path style="opacity:0.2" d="m 20,32 c 0,1.333348 0,2.666652 0,4 2.000002,0 4,0 6,0 0,-1.333348 0,-2.666652 0,-4 -2,0 -3.999998,0 -6,0 z"/>
 <path style="opacity:0.2" d="m 20,39 c 0,1.333348 0,2.666652 0,4 2.000002,0 4,0 6,0 0,-1.333348 0,-2.666652 0,-4 -2,0 -3.999998,0 -6,0 z"/>
 <path style="opacity:0.2" d="m 29,24 c 0,1.333348 0,2.666652 0,4 2.000002,0 4,0 6,0 0,-1.333348 0,-2.666652 0,-4 -2,0 -3.999998,0 -6,0 z"/>
 <path style="opacity:0.2" d="m 29,31 c 0,1.333348 0,2.666652 0,4 2.000002,0 4,0 6,0 0,-1.333348 0,-2.666652 0,-4 -2,0 -3.999998,0 -6,0 z"/>
 <path style="opacity:0.2" d="m 29,38 c 0,1.333348 0,2.666652 0,4 2.000002,0 4,0 6,0 0,-1.333348 0,-2.666652 0,-4 -2,0 -3.999998,0 -6,0 z"/>
 <path style="opacity:0.2" d="m 29,45 c 0,1.333348 0,2.666652 0,4 2.000002,0 4,0 6,0 0,-1.333348 0,-2.666652 0,-4 -2,0 -3.999998,0 -6,0 z"/>
 <path style="opacity:0.2" d="m 53,22 c 0,1.333348 0,2.666652 0,4 -2.000001,0 -4,0 -6,0 0,-1.333348 0,-2.666652 0,-4 2,0 3.999999,0 6,0 z"/>
 <path style="opacity:0.2" d="m 53,29 c 0,1.333348 0,2.666652 0,4 -2.000001,0 -4,0 -6,0 0,-1.333348 0,-2.666652 0,-4 2,0 3.999999,0 6,0 z"/>
 <path style="opacity:0.2" d="m 53,36 c 0,1.333348 0,2.666652 0,4 -2.000001,0 -4,0 -6,0 0,-1.333348 0,-2.666652 0,-4 2,0 3.999999,0 6,0 z"/>
 <path style="opacity:0.2" d="m 44,18 c 0,1.333348 0,2.666652 0,4 -2.000002,0 -4,0 -6,0 0,-1.333348 0,-2.666652 0,-4 2,0 3.999998,0 6,0 z"/>
 <path style="opacity:0.2" d="m 44,25 c 0,1.333348 0,2.666652 0,4 -2.000002,0 -4,0 -6,0 0,-1.333348 0,-2.666652 0,-4 2,0 3.999998,0 6,0 z"/>
 <path style="opacity:0.2" d="m 44,32 c 0,1.333348 0,2.666652 0,4 -2.000002,0 -4,0 -6,0 0,-1.333348 0,-2.666652 0,-4 2,0 3.999998,0 6,0 z"/>
 <path style="opacity:0.2" d="m 44,39 c 0,1.333348 0,2.666652 0,4 -2.000002,0 -4,0 -6,0 0,-1.333348 0,-2.666652 0,-4 2,0 3.999998,0 6,0 z"/>
 <path style="fill:#ffffff" d="M 20 17 L 20 21 L 26 21 L 26 17 L 20 17 z M 38 17 L 38 21 L 44 21 L 44 17 L 38 17 z M 11 21 L 11 25 L 17 25 L 17 21 L 11 21 z M 47 21 L 47 25 L 53 25 L 53 21 L 47 21 z M 29 23 L 29 27 L 35 27 L 35 23 L 29 23 z M 20 24 L 20 28 L 26 28 L 26 24 L 20 24 z M 38 24 L 38 28 L 44 28 L 44 24 L 38 24 z M 11 28 L 11 32 L 17 32 L 17 28 L 11 28 z M 47 28 L 47 32 L 53 32 L 53 28 L 47 28 z M 29 30 L 29 34 L 35 34 L 35 30 L 29 30 z M 20 31 L 20 35 L 26 35 L 26 31 L 20 31 z M 38 31 L 38 35 L 44 35 L 44 31 L 38 31 z M 11 35 L 11 39 L 17 39 L 17 35 L 11 35 z M 47 35 L 47 39 L 53 39 L 53 35 L 47 35 z M 29 37 L 29 41 L 35 41 L 35 37 L 29 37 z M 20 38 L 20 42 L 26 42 L 26 38 L 20 38 z M 38 38 L 38 42 L 44 42 L 44 38 L 38 38 z M 29 44 L 29 48 L 35 48 L 35 44 L 29 44 z"/>
 <path style="opacity:0.2;fill:#ffffff" d="M 20 10 C 17.299222 10.0033 14.841223 11.559897 13.683594 14 L 11 14 C 7.1341669 14.000387 4.0003865 17.134167 4 21 L 4 22 C 4.0003865 18.134167 7.1341669 15.000387 11 15 L 13.683594 15 C 14.841223 12.559897 17.299222 11.0033 20 11 L 26 11 C 28.460278 11.003448 30.738165 12.298107 32 14.410156 C 33.261835 12.298107 35.539722 11.0034 38 11 L 44 11 C 46.700072 11.004069 49.157127 12.560533 50.314453 15 L 53 15 C 56.865833 15.000387 59.999613 18.134167 60 22 L 60 21 C 59.999613 17.134167 56.865833 14.000387 53 14 L 50.314453 14 C 49.157127 11.560533 46.700072 10.004069 44 10 L 38 10 C 35.539722 10.0034 33.261835 11.298107 32 13.410156 C 30.738165 11.298107 28.460278 10.003448 26 10 L 20 10 z"/>
</svg>

<?xml version="1.0" encoding="UTF-8" standalone="no"?>
<svg
   id="_图层_1"
   version="1.1"
   viewBox="0 0 64 64" width="64" height="64"
   sodipodi:docname="babe.svg"
   xml:space="preserve"
   inkscape:version="1.4 (e7c3feb100, 2024-10-09)"
   xmlns:inkscape="http://www.inkscape.org/namespaces/inkscape"
   xmlns:sodipodi="http://sodipodi.sourceforge.net/DTD/sodipodi-0.dtd"
   xmlns="http://www.w3.org/2000/svg"
   xmlns:svg="http://www.w3.org/2000/svg"><sodipodi:namedview
     id="namedview26"
     pagecolor="#505050"
     bordercolor="#eeeeee"
     borderopacity="1"
     inkscape:showpageshadow="0"
     inkscape:pageopacity="0"
     inkscape:pagecheckerboard="0"
     inkscape:deskcolor="#505050"
     inkscape:zoom="10.6875"
     inkscape:cx="32"
     inkscape:cy="34.339181"
     inkscape:window-width="1920"
     inkscape:window-height="939"
     inkscape:window-x="0"
     inkscape:window-y="34"
     inkscape:window-maximized="1"
     inkscape:current-layer="_图层_1" /><!-- Generator: Adobe Illustrator 29.0.1, SVG Export Plug-In . SVG Version: 2.1.0 Build 192)  --><defs
     id="defs6"><inkscape:path-effect
       effect="fillet_chamfer"
       id="path-effect26"
       is_visible="true"
       lpeversion="1"
       nodesatellites_param="F,0,0,1,0,0,0,1 @ F,0,0,1,0,0,0,1 @ F,0,1,1,0,0,0,1 @ F,0,0,1,0,0,0,1 | F,0,0,1,0,0,0,1 @ F,0,0,1,0,0,0,1 @ F,0,0,1,0,0,0,1 @ F,0,0,1,0,0,0,1"
       radius="0"
       unit="px"
       method="auto"
       mode="F"
       chamfer_steps="1"
       flexible="false"
       use_knot_distance="true"
       apply_no_radius="true"
       apply_with_radius="true"
       only_selected="false"
       hide_knots="false" /><style
       id="style1">
      .st0 {
        fill-opacity: .5;
      }

      .st0, .st1, .st2, .st3, .st4, .st5, .st6, .st7 {
        fill: #fff;
      }

      .st8 {
        fill: #133c9a;
      }

      .st2, .st9 {
        display: none;
      }

      .st3 {
        fill-opacity: .2;
      }

      .st4 {
        fill-opacity: .9;
      }

      .st10 {
        fill: #3370ff;
      }

      .st11 {
        fill: url(#_未命名的渐变_3);
      }

      .st12 {
        fill: url(#_未命名的渐变);
      }

      .st5 {
        fill-opacity: .3;
      }

      .st6 {
        fill-opacity: 0;
      }

      .st7 {
        fill-opacity: .7;
      }

      .st13 {
        fill: #00d6b9;
      }

      .st14 {
        fill: url(#_未命名的渐变_2);
      }
    </style><radialGradient
       id="_未命名的渐变"
       data-name="未命名的渐变"
       cx="123.9"
       cy="-40.2"
       fx="123.9"
       fy="-40.2"
       r="59.4"
       gradientTransform="translate(-26.8 25.5) scale(.6 -.7)"
       gradientUnits="userSpaceOnUse"><stop
         offset="0"
         stop-color="#db202e"
         id="stop1" /><stop
         offset="1"
         stop-color="#e01b24"
         id="stop2" /></radialGradient><radialGradient
       id="_未命名的渐变_2"
       data-name="未命名的渐变 2"
       cx="67.6"
       cy="26.8"
       fx="67.6"
       fy="26.8"
       r="105.2"
       gradientTransform="translate(-26.6 25.3) scale(.6 -.7)"
       gradientUnits="userSpaceOnUse"><stop
         offset="0"
         stop-color="#ffb648"
         id="stop3" /><stop
         offset="1"
         stop-color="#ff7800"
         stop-opacity="0"
         id="stop4" /></radialGradient><radialGradient
       id="_未命名的渐变_3"
       data-name="未命名的渐变 3"
       cx="61.7"
       cy="18.6"
       fx="61.7"
       fy="18.6"
       r="68"
       gradientTransform="translate(-26.8 25.8) scale(.6 -.7)"
       gradientUnits="userSpaceOnUse"><stop
         offset="0"
         stop-color="#c64600"
         id="stop5" /><stop
         offset="1"
         stop-color="#a51d2d"
         id="stop6" /></radialGradient></defs><path
     class="st1"
     d="M47.5,64.1H13.8c-7.6,0-13.8-6.3-13.8-13.8V13.7C0,6.2,6.2,0,13.7,0h36.6c7.5,0,13.7,6.2,13.7,13.7v36.6c0,7.5-6.2,13.7-13.7,13.7h-2.9.1Z"
     id="path6"
     style="fill:#f85b79;fill-opacity:1" /><g
     id="g26"
     transform="matrix(1.1370092,0,0,1.1566234,-4.2907269,-8.5954742)"><path
       style="opacity:0.2"
       d="m 11,22 c 0,1.333348 0,2.666652 0,4 2.000001,0 4,0 6,0 0,-1.333348 0,-2.666652 0,-4 -2,0 -3.999999,0 -6,0 z"
       id="path3" /><path
       style="opacity:0.2"
       d="m 11,29 c 0,1.333348 0,2.666652 0,4 2.000001,0 4,0 6,0 0,-1.333348 0,-2.666652 0,-4 -2,0 -3.999999,0 -6,0 z"
       id="path4" /><path
       style="opacity:0.2"
       d="m 11,36 c 0,1.333348 0,2.666652 0,4 2.000001,0 4,0 6,0 0,-1.333348 0,-2.666652 0,-4 -2,0 -3.999999,0 -6,0 z"
       id="path5" /><path
       style="opacity:0.2"
       d="m 20,18 c 0,1.333348 0,2.666652 0,4 2.000002,0 4,0 6,0 0,-1.333348 0,-2.666652 0,-4 -2,0 -3.999998,0 -6,0 z"
       id="path6-9" /><path
       style="opacity:0.2"
       d="m 20,25 c 0,1.333348 0,2.666652 0,4 2.000002,0 4,0 6,0 0,-1.333348 0,-2.666652 0,-4 -2,0 -3.999998,0 -6,0 z"
       id="path7" /><path
       style="opacity:0.2"
       d="m 20,32 c 0,1.333348 0,2.666652 0,4 2.000002,0 4,0 6,0 0,-1.333348 0,-2.666652 0,-4 -2,0 -3.999998,0 -6,0 z"
       id="path8" /><path
       style="opacity:0.2"
       d="m 20,39 c 0,1.333348 0,2.666652 0,4 2.000002,0 4,0 6,0 0,-1.333348 0,-2.666652 0,-4 -2,0 -3.999998,0 -6,0 z"
       id="path9" /><path
       style="opacity:0.2"
       d="m 29,24 c 0,1.333348 0,2.666652 0,4 2.000002,0 4,0 6,0 0,-1.333348 0,-2.666652 0,-4 -2,0 -3.999998,0 -6,0 z"
       id="path10" /><path
       style="opacity:0.2"
       d="m 29,31 c 0,1.333348 0,2.666652 0,4 2.000002,0 4,0 6,0 0,-1.333348 0,-2.666652 0,-4 -2,0 -3.999998,0 -6,0 z"
       id="path11" /><path
       style="opacity:0.2"
       d="m 29,38 c 0,1.333348 0,2.666652 0,4 2.000002,0 4,0 6,0 0,-1.333348 0,-2.666652 0,-4 -2,0 -3.999998,0 -6,0 z"
       id="path12" /><path
       style="opacity:0.2"
       d="m 29,45 c 0,1.333348 0,2.666652 0,4 2.000002,0 4,0 6,0 0,-1.333348 0,-2.666652 0,-4 -2,0 -3.999998,0 -6,0 z"
       id="path13" /><path
       style="opacity:0.2"
       d="m 53,22 c 0,1.333348 0,2.666652 0,4 -2.000001,0 -4,0 -6,0 0,-1.333348 0,-2.666652 0,-4 2,0 3.999999,0 6,0 z"
       id="path14" /><path
       style="opacity:0.2"
       d="m 53,29 c 0,1.333348 0,2.666652 0,4 -2.000001,0 -4,0 -6,0 0,-1.333348 0,-2.666652 0,-4 2,0 3.999999,0 6,0 z"
       id="path15" /><path
       style="opacity:0.2"
       d="m 53,36 c 0,1.333348 0,2.666652 0,4 -2.000001,0 -4,0 -6,0 0,-1.333348 0,-2.666652 0,-4 2,0 3.999999,0 6,0 z"
       id="path16" /><path
       style="opacity:0.2"
       d="m 44,18 c 0,1.333348 0,2.666652 0,4 -2.000002,0 -4,0 -6,0 0,-1.333348 0,-2.666652 0,-4 2,0 3.999998,0 6,0 z"
       id="path17" /><path
       style="opacity:0.2"
       d="m 44,25 c 0,1.333348 0,2.666652 0,4 -2.000002,0 -4,0 -6,0 0,-1.333348 0,-2.666652 0,-4 2,0 3.999998,0 6,0 z"
       id="path18" /><path
       style="opacity:0.2"
       d="m 44,32 c 0,1.333348 0,2.666652 0,4 -2.000002,0 -4,0 -6,0 0,-1.333348 0,-2.666652 0,-4 2,0 3.999998,0 6,0 z"
       id="path19" /><path
       style="opacity:0.2"
       d="m 44,39 c 0,1.333348 0,2.666652 0,4 -2.000002,0 -4,0 -6,0 0,-1.333348 0,-2.666652 0,-4 2,0 3.999998,0 6,0 z"
       id="path20" /><path
       style="fill:#ffffff"
       d="m 20,17 v 4 h 6 v -4 z m 18,0 v 4 h 6 v -4 z m -27,4 v 4 h 6 v -4 z m 36,0 v 4 h 6 v -4 z m -18,2 v 4 h 6 v -4 z m -9,1 v 4 h 6 v -4 z m 18,0 v 4 h 6 v -4 z m -27,4 v 4 h 6 v -4 z m 36,0 v 4 h 6 v -4 z m -18,2 v 4 h 6 v -4 z m -9,1 v 4 h 6 v -4 z m 18,0 v 4 h 6 v -4 z m -27,4 v 4 h 6 v -4 z m 36,0 v 4 h 6 v -4 z m -18,2 v 4 h 6 v -4 z m -9,1 v 4 h 6 v -4 z m 18,0 v 4 h 6 v -4 z m -9,6 v 4 h 6 v -4 z"
       id="path21" /></g></svg>
